X: 3
T: da Crofter's Wife
R: reel
N: Taught by Jenna Reid in BSFC workshop 2021-12-20
M: C|
L: 1/8
K: G
D2 \
| vG2(uGE) DB,DE | GAB(ud cB)AG | A2(uAG) EGAB | cdeg d(ucBA) |
|  G2(uGE) DB,DE | GABG (vAB)(uce) | defg (vfe)(udc) | vB2uG2 vG2 :|
|: ud2 \
| vg2(uga) vg(udBd) | (vgf)(uga) vg(udBd) | va2(uab) afdf | vau^g(vab) (uad)veuf |
| (vgf)(uga) gfed | (vcB)(ucd) efge | defg (vfe)(udc) | vB2uG2 vG2 :|

